X:1
T:The Last of Nines
M:6/8
L:1/8
Q:115
C:(c) Greg Anderson, 12 May 2000
R:Jig
H:A jig for my daughter Merretta's very last day, ever, as a nine year
H:old
K:G
Bc^c||dBG gfe|d3 gag |f2 c ece|d3 Bc^c|dBG gfe|
d3 ^c=cB|A^GA ^c=ge|d3 Bc^c|dBG gfe|d3 gag |f2 c ece|
d3 Bc^c|dBd efg|a3 abc'|afd cFA|G2 z A2 B||c2 A c2 B|
cde f2 e|ded Bce|d2 B G2 B|c2 e g2 a|f3 d3|bd'b agf|g2 d A2 B|
c2 A c2 B|cde f2 e|ded Bce|d3 d2 d|e^de f=f^f|gfg age|ded cFA|G2 z Bc^c||
